src/resources/drop-icon.svg

<svg fill="none" height="17" viewBox="0 0 12 17" width="12" xmlns="http://www.w3.org/2000/svg"><g fill="#bf925a"><path d="m9.20213 10.736c-.17675 0-.32022.1435-.32022.3202 0 1.5889-1.29305 2.882-2.882 2.882-.17675 0-.32022.1435-.32022.3202 0 .1768.14347.3203.32022.3203 1.94246 0 3.52244-1.58 3.52244-3.5225 0-.1767-.14347-.3202-.32022-.3202z"/><path d="m7.93851 3.13011c-.60267-.85563-1.17136-1.66451-1.66386-2.485553-.11591-.192783-.43357-.192783-.54951 0-.4925.821043-1.0612 1.629923-1.66386 2.485553-1.72342 2.4484-3.505128 4.97943-3.505128 7.92609 0 3.0018 2.441988 5.4438 5.443738 5.4438s5.44381-2.442 5.44381-5.4438c-.0001-2.94663-1.78177-5.47766-3.50519-7.92609zm-1.93865 12.72939c-2.64887 0-4.80333-2.1544-4.80333-4.8033 0-2.74363 1.72215-5.19075 3.38857-7.55783.47969-.68207.97348-1.38336 1.41473-2.07952.44125.69616.93504 1.39745 1.41473 2.07952 1.66649 2.36708 3.38864 4.8142 3.38864 7.55783 0 2.6489-2.15447 4.8033-4.80334 4.8033z"/></g></svg>

<svg width="12" height="17" viewBox="0 0 12 17" fill="none" xmlns="http://www.w3.org/2000/svg">
<g id="Group">
<path id="Vector" d="M9.20213 10.736C9.02538 10.736 8.88191 10.8795 8.88191 11.0562C8.88191 12.6451 7.58886 13.9382 5.99991 13.9382C5.82316 13.9382 5.67969 14.0817 5.67969 14.2584C5.67969 14.4352 5.82316 14.5787 5.99991 14.5787C7.94237 14.5787 9.52235 12.9987 9.52235 11.0562C9.52235 10.8795 9.37888 10.736 9.20213 10.736Z" fill="#BF925A"/>
<path id="Vector_2" d="M7.93851 3.13011C7.33584 2.27448 6.76715 1.4656 6.27465 0.644557C6.15874 0.451774 5.84108 0.451774 5.72514 0.644557C5.23264 1.4656 4.66394 2.27448 4.06128 3.13011C2.33786 5.57851 0.556152 8.10954 0.556152 11.0562C0.556152 14.058 2.99814 16.5 5.99989 16.5C9.00164 16.5 11.4437 14.058 11.4437 11.0562C11.4436 8.10957 9.66193 5.57854 7.93851 3.13011ZM5.99986 15.8595C3.35099 15.8595 1.19653 13.7051 1.19653 11.0562C1.19653 8.31257 2.91868 5.86545 4.5851 3.49837C5.06479 2.8163 5.55858 2.11501 5.99983 1.41885C6.44108 2.11501 6.93487 2.8163 7.41456 3.49837C9.08105 5.86545 10.8032 8.31257 10.8032 11.0562C10.8032 13.7051 8.64873 15.8595 5.99986 15.8595Z" fill="#BF925A"/>
</g>
</svg>
